X:1
T:The Broom of the Cowdenknowes
M:2/4
L:1/8
K:A
 E3 F| E3 F| ED CB,| A,3 E| A2 AB|c-BA-G| F4-| E4| A2 AB| c2 Bc| A2 CD|\
 E4| D2 DC|D-EF-D| B,4|
